X:489
T:Summertime 2
S:Nigel Gatherer
N:Elements taken from Doc Watson's solo and
N:Dave Grisman's solo on the 'Doc and Dawg' CD
Z:Nigel Gatherer
M:4/4
L:1/8
K:Bb
{^F}GBc | {^c}d- d7- | d^c=cB cdB{^F}G- | G D3- D4- | D4- D{^F}GBc |
{^c}d- d2 =c/B/ c4- | c3 A BcBG | ABAG ^FDCA, | G, z3 {^F}GABc |
 {^c}d- d7- | d^c=cB cdB{^F}G- | G D3- D3 B, | (3B,DB, (3A,DA, G,2 (3BCD |
(3FDF DF G B2 {c}_d- | _d c3- cBGF | {^F}G- G7- | G6 |]
